shared/img/tn-google.svg

<?xml version="1.0" encoding="UTF-8"?>
<svg width="13px" height="14px" viewBox="0 0 13 14" version="1.1" xmlns="http://www.w3.org/2000/svg" xmlns:xlink="http://www.w3.org/1999/xlink">
    <!-- Generator: sketchtool 47.1 (45422) - http://www.bohemiancoding.com/sketch -->
    <title>89FD23BA-90B9-406C-8506-5CA69851F42E</title>
    <desc>Created with sketchtool.</desc>
    <defs></defs>
    <g id="V4--RC-Updates" stroke="none" stroke-width="1" fill="none" fill-rule="evenodd">
        <g id="ASSETS--Pill-Icons" transform="translate(-181.000000, -380.000000)" fill-rule="nonzero" fill="#FFFFFF">
            <g id="google" transform="translate(181.000000, 380.000000)">
                <path d="M12.6854839,7.01580645 C12.6854839,10.6977419 10.1693548,13.306129 6.44548387,13.306129 C4.7349668,13.3072441 3.09424891,12.6279505 1.88512384,11.4180387 C0.675998764,10.208127 -0.00222759969,8.5669676 3.35215711e-14,6.85645161 C-0.00111350718,5.14666189 0.677604725,3.5065808 1.88660889,2.29757663 C3.09561305,1.08857247 4.73569415,0.409854235 6.44548387,0.410967742 C8.04943049,0.389563502 9.59920997,0.990835851 10.7690323,2.0883871 L9.01612903,3.76580645 C6.72225806,1.5516129 2.45322581,3.21225806 2.45322581,6.83548387 C2.43227611,9.06192541 4.21906305,10.884373 6.44548387,10.9074194 C8.99935484,10.9074194 9.95548387,9.07903226 10.1064516,8.13129032 L6.44548387,8.13129032 L6.44548387,5.91290323 L12.5806452,5.91290323 C12.6478235,6.26679928 12.6815207,6.62623598 12.6812903,6.98645161 L12.6854839,7.01580645 Z" id="Shape"></path>
            </g>
        </g>
    </g>
</svg>

<svg width="13" height="14" xmlns="http://www.w3.org/2000/svg"><path d="M12.685 7.016c0 3.682-2.516 6.29-6.24 6.29A6.441 6.441 0 0 1 0 6.856 6.441 6.441 0 0 1 6.445.411a6.198 6.198 0 0 1 4.324 1.677L9.016 3.766c-2.294-2.214-6.563-.554-6.563 3.07a4.034 4.034 0 0 0 3.992 4.071c2.554 0 3.51-1.828 3.661-2.776h-3.66V5.913h6.135c.067.354.1.713.1 1.073l.004.03z" fill-rule="nonzero" fill="#FFF"/></svg>
